X: 16418
T: Gypsy, The
R: reel
M: 4/4
K: Eminor
E~B3 B2AG|A2GA BGED|EBBc BAGB|AFED E3D|
E~B3 B2AG|A2GA BGED|EBBA BAGB|AFED E3D||
|:B,EEF GFEB|AGFD EFED|CEEF GFEB|1 AGFD E3D:|2 AGFD E3B||
|:cdec BcdB|A2GA BGE2|gefd ecdc|B2AG BccB|
A2c/B/A eAge|fdec dcBA|B2Bc BAGB|1 AGED E3B:|2 AGED E3D||

